X:1
T:Euphony, 88.88.88.8
T:Euphony, 88.88.88.8
T:Henry Dennis, 1850
T:Public Domain Courtesy of the Cyber Hymnal™
C:Henry Dennis, 1850
Z:Public Domain
Z:Courtesy of the Cyber Hymnal™
%%score ( 1 2 ) ( 3 4 )
L:1/8
Q:1/4=130
M:4/4
K:E
V:1 treble 
V:2 treble 
V:3 bass 
V:4 bass 
V:1
 [B,E]2 | [B,E]4 E2 F2 | [EG]4 G2 A2 | [EF]4 F2 G2 | E6 [B,E]2 | D2 E2 [DF]2 [EG]2 | A2 G4 [B,E]2 | %7
 E2 D2 G2 F2 | E8 | [GB]4 [EG]2 [Ee]2 | [Ee]6 [Ac]2 | [GB]2 [EG]2 [DB]2 [FA]2 | [EG]6 [FB]2 | %13
 e2 d2 c2 B2 | ^A2 F2 [FB]2 [Gc]2 | [FB]4 [F^A]4 | [FB]6 [GB]2 | [GB]4 [Ac]2 [GB]2 | [EG]4 B2 A2 | %19
 [DF]3 [EG] [FA]2 [DB]2 | [EG]8 | [Ee]4 [Ed]2 [Ec]2 | c2 B4 [EG]2 | B4 A4 F2 | [EG]8 | %25
 [EG]2 [Ge]2 [Ad]2 [Dc]2 | B2 G2 [GB]2 [FA]2 | [EG]4 [DF]4 | E6 |] %29
V:2
 x2 | x4 B,4 | x4 E4 | x4 D4 | E6 x2 | B,4 x4 | E6 x2 | B,4 D4 | E8 | x8 | x8 | x8 | x8 | F4 G4 | %14
 F4 x4 | x8 | x8 | x8 | x4 E4 | x8 | x8 | x8 | E6 x2 | F2 D2 E2 x4 | x8 | x8 | E4 x4 | x8 | E6 |] %29
V:3
 [E,G,]2 | [E,G,]4 G,2 A,2 | [E,B,]4 [C,C]4 | [A,,C]4 A,2 B,2 | [E,G,]6 [E,G,]2 | %5
 B,4 [F,A,]2 [E,B,]2 | C2 B,4 [E,G,]2 | G,2 F,2 B,2 A,2 | [E,G,]8 | [E,E]4 [E,=D]2 [G,D]2 | %10
 [A,C]6 [A,E]2 | [B,E]4 B,4 | [E,B,]6 [D,B,]2 | [C,^A,]2 [B,,B,]2 [E,B,]2 [^E,C]2 | %14
 [F,C]2 [E,^A,]2 [D,B,]2 [E,E]2 | [F,D]4 [F,C]4 | [B,,D]6 [E,E]2 | [E,E]4 [E,E]4 | %18
 B,4 [G,B,]2 [A,C]2 | B,6 [B,,B,]2 | [E,B,]8 | [E,C]4 [E,B,]2 [E,A,]2 | A,2 G,4 [E,B,]2 | %23
 B,4 B,4 x2 | [E,B,]8 | [E,B,]4 [F,A,]2 [F,A,]2 | B,4 [A,C]4 | B,4 (B,2 A,2) | [E,G,]6 |] %29
V:4
 x2 | x4 E,4 | x8 | x4 B,,4 | x8 | A,2 G,2 x4 | E,6 x2 | B,,4 B,,4 | x8 | x8 | x8 | x4 B,,2 D,2 | %12
 x8 | x8 | x8 | x8 | x8 | x8 | E,3 F, x4 | B,6 x2 | x8 | x8 | E,6 x2 | D,2 B,,2 C,2 D,2 x2 | x8 | %25
 x8 | G,2 E,2 x4 | B,4 B,,4 | x6 |] %29

